X:1
T:Banks of Sweet Primroses
M:3/4
L:1/8
K:G
 DGF G3| AB A/2G/2G-F D| DccB-A G3/2| E/2 FG A2 z B| ce d2 G3/2 A/2|\
 BAG-F BA|G/2-F/2E/2-D/2G-B dc| BA G3||
